modules/hawcons-stroke/icons/icon-29-move.svg

<?xml version="1.0" encoding="UTF-8" standalone="no"?>
<svg width="32px" height="32px" viewBox="0 0 32 32" version="1.1" xmlns="http://www.w3.org/2000/svg" xmlns:xlink="http://www.w3.org/1999/xlink" xmlns:sketch="http://www.bohemiancoding.com/sketch/ns">
    <!-- Generator: Sketch 3.0.3 (7891) - http://www.bohemiancoding.com/sketch -->
    <title>icon 29 move</title>
    <desc>Created with Sketch.</desc>
    <defs></defs>
    <g id="Page-1" stroke="none" stroke-width="1" fill="none" fill-rule="evenodd" sketch:type="MSPage">
        <g id="icon-29-move" sketch:type="MSArtboardGroup" fill="#929292">
            <path d="M18.4748737,22.0248828 L18.4748737,18.3495995 L10.1732515,9.97487373 L13.4748737,9.97487373 L13.4748737,8.97487373 L8.47487373,8.97487373 L8.47487373,13.9748737 L9.47487373,13.9748737 L9.47487373,10.6819805 L17.4748737,18.6819805 L17.4748737,22.0248828 C16.3337536,22.256518 15.4748737,23.2653948 15.4748737,24.4748737 C15.4748737,25.8555856 16.5941619,26.9748737 17.9748737,26.9748737 C19.3555856,26.9748737 20.4748737,25.8555856 20.4748737,24.4748737 C20.4748737,23.2653948 19.6159939,22.256518 18.4748737,22.0248828 L18.4748737,22.0248828 L18.4748737,22.0248828 Z M9.47487373,21.1819805 L7.70710678,22.9497475 L7,22.2426407 L8.76776695,20.4748737 L7,18.7071068 L7.70710678,18 L9.47487373,19.767767 L11.2426407,18 L11.9497475,18.7071068 L10.1819805,20.4748737 L11.9497475,22.2426407 L11.2426407,22.9497475 L9.47487373,21.1819805 L9.47487373,21.1819805 Z M23.4748737,14.1819805 L21.7071068,15.9497475 L21,15.2426407 L22.767767,13.4748737 L21,11.7071068 L21.7071068,11 L23.4748737,12.767767 L25.2426407,11 L25.9497475,11.7071068 L24.1819805,13.4748737 L25.9497475,15.2426407 L25.2426407,15.9497475 L23.4748737,14.1819805 L23.4748737,14.1819805 L23.4748737,14.1819805 Z M18.4748737,7.18198052 L16.7071068,8.94974747 L16,8.24264069 L17.767767,6.47487373 L16,4.70710678 L16.7071068,4 L18.4748737,5.76776695 L20.2426407,4 L20.9497475,4.70710678 L19.1819805,6.47487373 L20.9497475,8.24264069 L20.2426407,8.94974747 L18.4748737,7.18198052 L18.4748737,7.18198052 Z M17.9748737,25.9748737 C18.8033009,25.9748737 19.4748737,25.3033009 19.4748737,24.4748737 C19.4748737,23.6464466 18.8033009,22.9748737 17.9748737,22.9748737 C17.1464466,22.9748737 16.4748737,23.6464466 16.4748737,24.4748737 C16.4748737,25.3033009 17.1464466,25.9748737 17.9748737,25.9748737 L17.9748737,25.9748737 Z" sketch:type="MSShapeGroup"></path>
        </g>
    </g>
</svg>

<svg width="32" height="32" xmlns="http://www.w3.org/2000/svg"><path d="M18.475 22.025V18.35l-8.302-8.375h3.302v-1h-5v5h1v-3.293l8 8v3.343a2.5 2.5 0 1 0 1 0zm-9-.843L7.707 22.95 7 22.243l1.768-1.768L7 18.707 7.707 18l1.768 1.768L11.243 18l.707.707-1.768 1.768 1.768 1.768-.707.707-1.768-1.768zm14-7l-1.768 1.768-.707-.707 1.768-1.768L21 11.707l.707-.707 1.768 1.768L25.243 11l.707.707-1.768 1.768 1.768 1.768-.707.707-1.768-1.768zm-5-7L16.707 8.95 16 8.243l1.768-1.768L16 4.707 16.707 4l1.768 1.768L20.243 4l.707.707-1.768 1.768 1.768 1.768-.707.707-1.768-1.768zm-.5 18.793a1.5 1.5 0 1 0 0-3 1.5 1.5 0 0 0 0 3z" fill="#929292" fill-rule="evenodd"/></svg>
